X:1
T:Murdoch MacAlister  "1998.3"
M:C
L:1/8
Q:80
C:Rob MacNeil
S:Reel
K:HP
[| a | \
{AGAG}A2{g}A3/2{d}B/2{g}A3/2e/2{A}e3/2d/2 | \
{g}e3/2f/2g3/2f/2{gef}e2{g}d3/2B/2 | \
{gGd}G2{g}G3/2{d}B/2{g}G3/2{d}B/2{G}B3/2d/2 |
{g}e3/2f/2g3/2f/2{g}e3/2B/2{g}d3/2B/2 | \
{gAGAG}A2{g}A3/2{d}B/2{g}A3/2e/2{A}e3/2d/2 | \
{g}e3/2f/2g3/2e/2{ag}a2e3/2f/2 |
{gf}g2{a}f3/2e/2{g}G3/2{d}B/2{g}d3/2f/2 | \
{g}d/2e3/2{g}A2{GAG}A2|] [ | \
{gf}g2 |
{ag}a2A3/2{d}c/2a3/2e/2{A}e3/2c/2 | \
{g}e3/2f/2g3/2e/2{ag}a2e3/2f/2 | \
{gf}g2G3/2{d}B/2{a}g3/2d/2{G}d3/2e/2 |
{g}d3/2B/2{G}B3/2d/2{g}e3/2f/2g3/2e/2 | \
{ag}a2A3/2{d}c/2a3/2e/2{A}e3/2c/2 | \
{g}e3/2f/2g3/2e/2{ag}a2e3/2f/2 |
{gf}g2{a}f3/2e/2{g}G3/2{d}B/2{g}d3/2f/2 | \
{g}d/2e3/2{g}A2{GAG}A2|]
